!!!COM: Palestrina, Giovanni Perluigi da
!!!OPR: Missa Ecce ego Joannes
!!!OMD: Kyrie
!!!OTL: First Section
**kern	**kern	**kern	**kern	**kern	**kern
*Ibass	*Ibarit	*Itenor	*Itenor	*Icalto	*Icant
!Bassus	!Baritone	!Tenor 2	!Tenor 1	!Altus	!Cantus
*clefF4	*clefF4	*clefGv2	*clefGv2	*clefG2	*clefG2
*k[]	*k[]	*k[]	*k[]	*k[]	*k[]
*G:mix	*G:mix	*G:mix	*G:mix	*G:mix	*G:mix
*M4/2	*M4/2	*M4/2	*M4/2	*M4/2	*M4/2
=1	=1	=1	=1	=1	=1
0r	0r	0g	1r	0b	0dd
.	.	.	[1g	.	.
=2	=2	=2	=2	=2	=2
0r	0r	1c	1g]	1cc	1ee
.	.	1g	1G	1b	2.dd
.	.	.	.	.	4ee
=3	=3	=3	=3	=3	=3
0r	0r	1.f	2.d	1.a	2ff
.	.	.	.	.	2dd
.	.	.	4e	.	.
.	.	.	2f	.	4cc
.	.	.	.	.	4dd
.	.	2e	2g	2g	4ee
.	.	.	.	.	4cc
=4	=4	=4	=4	=4	=4
0r	0r	2d	2a	4f	1ff
.	.	.	.	4g	.
.	.	2d	2f	4a	.
.	.	.	.	4b	.
.	.	1c	2g	1cc	1ee
.	.	.	2e	.	.
=5	=5	=5	=5	=5	=5
0r	0d	1r	2f#	2a	0dd
.	.	.	1g	2b-	.
.	.	[1d	.	1a	.
.	.	.	2f#	.	.
=6	=6	=6	=6	=6	=6
0G	1G	1d]	2g	0g	2.b
.	.	.	2d	.	.
.	.	.	.	.	4a
.	1d	2G	2B	.	4b
.	.	.	.	.	4cc
.	.	[2g	2B	.	2dd
=7	=7	=7	=7	=7	=7
1C	1.c	4g]	2c	2r	2ee
.	.	4f	.	.	.
.	.	2e	2.G	2.g	2cc
1G	.	1d	.	.	2dd
.	.	.	4A	4f	.
.	2B	.	2B	4d	2g
.	.	.	.	4e	.
=8	=8	=8	=8	=8	=8
1.F	2A	0r	4c	4f	2.a
.	.	.	4B	4g	.
.	4F	.	4A	1a	.
.	4G	.	4G	.	4b
.	4A	.	2F	.	4cc
.	4B	.	.	.	4dd
2E	[2c	.	2G	2g	2ee
=9	=9	=9	=9	=9	=9
0D	2c]	0d	1A	1f	1ff
.	4B	.	.	.	.
.	4A	.	.	.	.
.	1B	.	2F	1r	1dd
.	.	.	2f	.	.
=10	=10	=10	=10	=10	=10
1C	1c	2G	2e	0g	1ee
.	.	1c	2c	.	.
1r	1G	.	2.d	.	1dd
.	.	2B	.	.	.
.	.	.	4e	.	.
=11	=11	=11	=11	=11	=11
2r	0r	2A	4f	1c	1r
.	.	.	4e	.	.
1c	.	2A	4e	.	.
.	.	.	8d	.	.
.	.	.	8c	.	.
.	.	[1G	[1d	[1g	[1dd
4B	.	.	.	.	.
4A	.	.	.	.	.
=12	=12	=12	=12	=12	=12
1B	1r	1G]	1d]	2g]	1dd]
.	.	.	.	2f	.
1c	2r	1r	1r	1e	1g
.	[2c	.	.	.	.
=13	=13	=13	=13	=13	=13
2.G	2c]	1r	0r	1d	1.dd
.	2B	.	.	.	.
4A	.	.	.	.	.
2B	2d	2r	.	1g	.
2c	2e	2g	.	.	2cc
=14	=14	=14	=14	=14	=14
4G	2d	2g	0d	1r	1b
4A	.	.	.	.	.
4B	2G	2g	.	.	.
4c	.	.	.	.	.
2d	1D	2f	.	2r	2a
2D	.	[2a	.	2f	2dd
=15	=15	=15	=15	=15	=15
1E	0r	4a]	1G	2g	2b
.	.	4g	.	.	.
.	.	1g	.	2g	2cc
1D	.	.	1d	2.a	1dd
.	.	2f	.	.	.
.	.	.	.	4b	.
=16	=16	=16	=16	=16	=16
0r	0r	2.g	1.c	2.cc	2.ee
.	.	4f	.	4b	4dd
.	.	2e	.	4a	2cc
.	.	.	.	4g	.
.	.	2d	2B	[2g	[2dd
=17	=17	=17	=17	=17	=17
1r	1r	2e	1A	2g]	4dd]
.	.	.	.	.	4cc
.	.	4d	.	2f#	1cc
.	.	4c	.	.	.
2r	2r	1d	1G	1g	.
2G	[2G	.	.	.	2b
=18	=18	=18	=18	=18	=18
2C	2G]	1A	2.g	1r	1cc
1c	2C	.	.	.	.
.	.	.	4f	.	.
.	2c	1r	4e	1g	1r
.	.	.	4c	.	.
2B	2d	.	[2g	.	.
=19	=19	=19	=19	=19	=19
1A	2e	1r	2g]	2c	0r
.	2c	.	2f#	1cc	.
1G	2e	2r	1g	.	.
.	[2d	2g	.	2b	.
=20	=20	=20	=20	=20	=20
2F	4d]	1c	0r	2a	1r
.	4c	.	.	.	.
2E	1c	.	.	2g	.
1D	.	[1f	.	2a	1dd
.	2B	.	.	2f	.
=21	=21	=21	=21	=21	=21
1C	1c	2f]	0r	2r	2g
.	.	2e	.	2g	1gg
1r	1r	1d	.	2a	.
.	.	.	.	2b	2ff
=22	=22	=22	=22	=22	=22
0r	0r	4c	1g	2cc	1ee
.	.	4d	.	.	.
.	.	4e	.	4b	.
.	.	4f	.	4a	.
.	.	2g	2G	2b	1dd
.	.	2f	2d	[2a	.
=23	=23	=23	=23	=23	=23
0r	0r	2e	2A	2a]	2cc
.	.	2d	2B	1g	2b
.	.	1r	2c	.	1a
.	.	.	2d	2f#	.
=24	=24	=24	=24	=24	=24
0r	1c	0r	2.e	2g	[0g
.	.	.	.	2c	.
.	.	.	8d	.	.
.	.	.	8c	.	.
.	2G	.	2B	2d	.
.	[2c	.	2c	2e	.
=25	=25	=25	=25	=25	=25
1G	2c]	1r	1G	1d	1g]
.	2B	.	.	.	.
2C	[1e	1g	1r	4c	1r
.	.	.	.	4d	.
[2c	.	.	.	4e	.
.	.	.	.	4f	.
=26	=26	=26	=26	=26	=26
2c]	2e]	2c	0r	4g	0r
.	.	.	.	4a	.
2B	2d	1g	.	2b	.
1A	[1c	.	.	1cc	.
.	.	2f	.	.	.
=27	=27	=27	=27	=27	=27
1G	2c]	2e	1g	0r	0r
.	2B	2d	.	.	.
2F	2A	2f	2c	.	.
2E	2G	2c	[2g	.	.
=28	=28	=28	=28	=28	=28
1D	2A	1d	2g]	1r	1dd
.	2B	.	2f	.	.
1C	1c	2r	1e	2r	2g
.	.	[2G	.	2g	[2cc
=29	=29	=29	=29	=29	=29
0r	1G	4G]	1d	2g	2cc]
.	.	4A	.	.	.
.	.	2B	.	2g	2b
.	2A	4c	[1c	2e	1a
.	.	8d	.	.	.
.	.	8e	.	.	.
.	2F	2f	.	[2a	.
=30	=30	=30	=30	=30	=30
1G	4G	1d	2c]	2a]	1dd
.	4A	.	.	.	.
.	4B	.	2B	1g	.
.	4c	.	.	.	.
1D	1d	1r	1A	.	2r
.	.	.	.	2f#	[2dd
=31	=31	=31	=31	=31	=31
2.G	1.B	1d	2G	[0g	2dd]
.	.	.	2d	.	2g
4F	.	.	.	.	.
2.E	.	2G	[1e	.	2.gg
.	2B	[2g	.	.	.
4D	.	.	.	.	4ff
=32	=32	=32	=32	=32	=32
1.C	1c	4g]	2e]	0g]	4ee
.	.	4f	.	.	4dd
.	.	4e	2e	.	4cc
.	.	4d	.	.	4dd
.	2G	2c	2.g	.	2ee
2G	2B	2d	.	.	2dd
.	.	.	4f	.	.
=33	=33	=33	=33	=33	=33
1C	1c	2e	2.e	[0g	0cc
.	.	2c	.	.	.
.	.	.	4d	.	.
1C	1G	1e	1c	.	.
=34	=34	=34	=34	=34	=34
0G	0G	0d	0B	0g]	0dd
*-	*-	*-	*-	*-	*-
!!!CDT: 1525/^1526/-1594/2/2
!!!OCY: Italia
!!!AGN: Mass (Parody)
!!!AST: renaissance, vocal
!!!ASW: Motet (Unidentified)
!!!PWK: Masses, Book 12
!!!RNB: Cadence finals: D
!!!YOR: Le Opere Complete, v. 29, p. 197
!!!YOO: Rome, Italy: Fratelli Scalera
!!!END: 1992//
!!!EED: John Miller
!!!YEC: Copyright 2000, John Miller
!!!YEN: United States of America
!!!YEM: Rights to all derivative electronic formats reserved.
!!!YEM: Refer to licensing agreement for further details.
!!!YEM: This file must be accompanied by the licensing agreement.
!!!YEM: A copy of the licensing agreement may be found at http://www.music-cog.ohio-state.edu/HumdrumDatabases/Palestrina/license.txt
!!!EMD: converted to Humdrum by Bret Aarden
